X: 10
T:Roast Beef of Old England, Adderbury
M:6/8
L:1/8
Q:100
A:Adderbury
P:A(AB)6
K:D
P:A
|:A|d>ed c>de|g>ed e2c|d>ed c>dc|BF^G A2:|
P:B
z|d>ef c>BA|d3   A2F|G>AB A<dc|d3   A3|
d>ef c>BA|d3   A2F|G>AB A<dc|d3-  d2||
W:
W:Oh! the roast beef of old England, and oh! for old England's roast beef.
W:Oh! the roast beef of old England, and oh! for old England's roast beef.
